X: 1
T:Beaux of London City
M:9/8
C:
S:Seabright
N:
A:Adderbury
O:English
R:Slip Jig
%P:Ch(AB)$^6$
P:A.(AB)6
%:
%:
K:G
I:speed 450
P:A
|:\
   D | G>GG BAG B<d D | G2G  B>AG A2 \
   D | G>GG BAG B<d D | G>DG B2A  G2 :|\
P:B
%
|: z | d2c  BAG Bd2   | A2A  A2B  c3 |\
       d2c  BAG B<d D | G>DG B2A  G2 :|
